img/svg/plane2.svg

<?xml version="1.0" encoding="utf-8"?><!DOCTYPE svg PUBLIC "-//W3C//DTD SVG 1.1//EN" "http://www.w3.org/Graphics/SVG/1.1/DTD/svg11.dtd"><svg version="1.1" baseProfile="full" xmlns="http://www.w3.org/2000/svg" xmlns:xlink="http://www.w3.org/1999/xlink" xmlns:ev="http://www.w3.org/2001/xml-events"   height="18px"   width="23px" ><path fill="rgb( 48, 171, 223 )" d="M19.718,10.145 C19.663,10.153 19.605,10.158 19.547,10.158 C19.547,10.158 13.853,10.158 13.853,10.158 C13.853,10.158 12.063,10.158 12.063,10.158 C12.063,10.158 14.7670000000001,18 14.7670000000001,18 C14.7670000000001,18 12.634,17.817 12.634,17.817 C12.634,17.817 11,15.497 11,15.497 C11,15.497 9.37,13.181 9.37,13.181 C9.37,13.181 7.24099999999999,10.158 7.24099999999999,10.158 C7.24099999999999,10.158 4.58000000000004,10.158 4.58000000000004,10.158 C4.58000000000004,10.158 1.32799999999997,10.158 1.32799999999997,10.158 C0.59400000000005,10.158 0,9.49799999999999 0,8.68400000000003 C0,7.87 0.59400000000005,7.21100000000001 1.32799999999997,7.21100000000001 C1.32799999999997,7.21100000000001 4.58000000000004,7.21100000000001 4.58000000000004,7.21100000000001 C4.58000000000004,7.21100000000001 7.49800000000005,7.21100000000001 7.49800000000005,7.21100000000001 C7.49800000000005,7.21100000000001 9.37300000000005,4.64299999999997 9.37300000000005,4.64299999999997 C9.37300000000005,4.64299999999997 11.0700000000001,2.31999999999999 11.0700000000001,2.31999999999999 C11.0700000000001,2.31999999999999 12.633,0.18299999999999 12.633,0.18299999999999 C12.633,0.18299999999999 15.038,0 15.038,0 C15.038,0 12.242,7.21199999999999 12.242,7.21199999999999 C12.242,7.21199999999999 13.853,7.21199999999999 13.853,7.21199999999999 C13.853,7.21199999999999 19.547,7.21199999999999 19.547,7.21199999999999 C19.6,7.21199999999999 19.651,7.214 19.7,7.221 C19.7,7.221 21.549,4.63600000000002 21.549,4.63600000000002 C21.549,4.63600000000002 23,4.63600000000002 23,4.63600000000002 C23,4.63600000000002 21.811,7.94 21.811,7.94 C21.811,7.94 21.811,8.17000000000002 21.811,8.17000000000002 C21.811,8.17000000000002 21.811,8.93000000000001 21.811,8.93000000000001 C21.811,8.93000000000001 21.811,9.59399999999999 21.811,9.59399999999999 C21.811,9.59399999999999 22.924,12.974 22.924,12.974 C22.924,12.974 21.6559999999999,12.974 21.6559999999999,12.974 C21.6559999999999,12.974 19.718,10.145 19.718,10.145 Z "/></svg>

<svg baseProfile="full" xmlns="http://www.w3.org/2000/svg" height="18" width="23"><path fill="rgb( 48, 171, 223 )" d="M19.718 10.145l-.171.013h-7.484l2.704 7.842-2.133-.183-1.634-2.32-1.63-2.316-2.129-3.023h-5.913c-.734 0-1.328-.66-1.328-1.474s.594-1.473 1.328-1.473h6.17l1.875-2.568 1.697-2.323 1.563-2.137 2.405-.183-2.796 7.212h7.305l.153.009 1.849-2.585h1.451l-1.189 3.304v1.654l1.113 3.38h-1.268l-1.938-2.829z"/></svg>
